img/header/header-lamp.svg

<svg width="28" height="28" viewBox="0 0 28 28" fill="none" xmlns="http://www.w3.org/2000/svg">
<path d="M15 2V1C15 0.734783 14.8946 0.48043 14.7071 0.292893C14.5196 0.105357 14.2652 0 14 0C13.7348 0 13.4804 0.105357 13.2929 0.292893C13.1054 0.48043 13 0.734783 13 1V2C13 2.26522 13.1054 2.51957 13.2929 2.70711C13.4804 2.89464 13.7348 3 14 3C14.2652 3 14.5196 2.89464 14.7071 2.70711C14.8946 2.51957 15 2.26522 15 2ZM5.51 4.1C5.3187 3.93617 5.07262 3.85057 4.82095 3.86029C4.56927 3.87001 4.33053 3.97434 4.15244 4.15244C3.97434 4.33053 3.87001 4.56927 3.86029 4.82095C3.85057 5.07262 3.93617 5.3187 4.1 5.51L4.81 6.22C5.0013 6.38383 5.24738 6.46943 5.49905 6.45971C5.75073 6.44999 5.98947 6.34566 6.16756 6.16756C6.34566 5.98947 6.44999 5.75073 6.45971 5.49905C6.46943 5.24738 6.38383 5.0013 6.22 4.81L5.51 4.1ZM2 15C2.26522 15 2.51957 14.8946 2.70711 14.7071C2.89464 14.5196 3 14.2652 3 14C3 13.7348 2.89464 13.4804 2.70711 13.2929C2.51957 13.1054 2.26522 13 2 13H1C0.734784 13 0.48043 13.1054 0.292893 13.2929C0.105357 13.4804 0 13.7348 0 14C0 14.2652 0.105357 14.5196 0.292893 14.7071C0.48043 14.8946 0.734784 15 1 15H2ZM4.1 23.9C4.28736 24.0862 4.54081 24.1908 4.805 24.1908C5.06919 24.1908 5.32264 24.0862 5.51 23.9L6.22 23.19C6.38383 22.9987 6.46943 22.7526 6.45971 22.5009C6.44999 22.2493 6.34566 22.0105 6.16756 21.8324C5.98947 21.6543 5.75073 21.55 5.49905 21.5403C5.24738 21.5306 5.0013 21.6162 4.81 21.78L4.1 22.49C3.91375 22.6774 3.80921 22.9308 3.80921 23.195C3.80921 23.4592 3.91375 23.7126 4.1 23.9ZM23.19 21.78C22.9987 21.6162 22.7526 21.5306 22.5009 21.5403C22.2493 21.55 22.0105 21.6543 21.8324 21.8324C21.6543 22.0105 21.55 22.2493 21.5403 22.5009C21.5306 22.7526 21.6162 22.9987 21.78 23.19L22.49 23.9C22.6813 24.0638 22.9274 24.1494 23.1791 24.1397C23.4307 24.13 23.6695 24.0257 23.8476 23.8476C24.0257 23.6695 24.13 23.4307 24.1397 23.1791C24.1494 22.9274 24.0638 22.6813 23.9 22.49L23.19 21.78ZM27 13H26C25.7348 13 25.4804 13.1054 25.2929 13.2929C25.1054 13.4804 25 13.7348 25 14C25 14.2652 25.1054 14.5196 25.2929 14.7071C25.4804 14.8946 25.7348 15 26 15H27C27.2652 15 27.5196 14.8946 27.7071 14.7071C27.8946 14.5196 28 14.2652 28 14C28 13.7348 27.8946 13.4804 27.7071 13.2929C27.5196 13.1054 27.2652 13 27 13ZM23.9 4.1C23.7126 3.91375 23.4592 3.80921 23.195 3.80921C22.9308 3.80921 22.6774 3.91375 22.49 4.1L21.78 4.81C21.6753 4.89965 21.5903 5.00996 21.5303 5.13403C21.4703 5.25809 21.4365 5.39323 21.4312 5.53095C21.4259 5.66867 21.4491 5.806 21.4994 5.93432C21.5496 6.06265 21.6259 6.1792 21.7234 6.27665C21.8208 6.3741 21.9374 6.45036 22.0657 6.50064C22.194 6.55091 22.3313 6.57412 22.4691 6.5688C22.6068 6.56348 22.7419 6.52975 22.866 6.46973C22.99 6.4097 23.1004 6.32468 23.19 6.22L23.9 5.51C24.0863 5.32264 24.1908 5.06919 24.1908 4.805C24.1908 4.54081 24.0863 4.28736 23.9 4.1ZM5 14C5.00219 15.4778 5.36826 16.9324 6.06588 18.2352C6.7635 19.538 7.77121 20.649 9 21.47V27C9 27.2652 9.10536 27.5196 9.29289 27.7071C9.48043 27.8946 9.73478 28 10 28H18C18.2652 28 18.5196 27.8946 18.7071 27.7071C18.8946 27.5196 19 27.2652 19 27V21.47C20.2933 20.6059 21.3406 19.4213 22.0397 18.0318C22.7388 16.6423 23.0659 15.0954 22.989 13.5419C22.9121 11.9883 22.4339 10.4812 21.601 9.16757C20.7682 7.85391 19.6091 6.77853 18.2368 6.0463C16.8644 5.31408 15.3258 4.95001 13.7709 4.98961C12.2159 5.02921 10.6978 5.47112 9.36454 6.27225C8.03128 7.07338 6.92841 8.20637 6.16348 9.56073C5.39856 10.9151 4.9977 12.4446 5 14ZM11 26V24H17V26H11ZM14 7C15.5402 7.00083 17.0372 7.50964 18.2589 8.44758C19.4807 9.38553 20.3589 10.7002 20.7576 12.188C21.1563 13.6757 21.0532 15.2534 20.4643 16.6766C19.8753 18.0998 18.8334 19.289 17.5 20.06C17.3474 20.1481 17.2208 20.275 17.133 20.4277C17.0452 20.5805 16.9993 20.7538 17 20.93V22H15V16H17C17.2652 16 17.5196 15.8946 17.7071 15.7071C17.8946 15.5196 18 15.2652 18 15C18 14.7348 17.8946 14.4804 17.7071 14.2929C17.5196 14.1054 17.2652 14 17 14H11C10.7348 14 10.4804 14.1054 10.2929 14.2929C10.1054 14.4804 10 14.7348 10 15C10 15.2652 10.1054 15.5196 10.2929 15.7071C10.4804 15.8946 10.7348 16 11 16H13V22H11V20.92C11.0007 20.7438 10.9548 20.5705 10.867 20.4177C10.7792 20.265 10.6526 20.1381 10.5 20.05C9.17152 19.2769 8.13445 18.088 7.54886 16.6668C6.96327 15.2457 6.86173 13.6713 7.2599 12.1867C7.65807 10.7021 8.53382 9.38977 9.75196 8.45238C10.9701 7.51499 12.4629 7.0046 14 7Z" fill="#B4708D"/>
</svg>

<svg width="28" height="28" fill="none" xmlns="http://www.w3.org/2000/svg"><path d="M15 2V1a1 1 0 00-2 0v1a1 1 0 002 0zM5.51 4.1A1 1 0 004.1 5.51l.71.71a1 1 0 001.41-1.41l-.71-.71zM2 15a1 1 0 000-2H1a1 1 0 000 2h1zm2.1 8.9a1 1 0 001.41 0l.71-.71a1 1 0 00-1.41-1.41l-.71.71a1 1 0 000 1.41zm19.09-2.12a1 1 0 00-1.41 1.41l.71.71a1 1 0 001.41-1.41l-.71-.71zM27 13h-1a1 1 0 000 2h1a1 1 0 000-2zm-3.1-8.9a1 1 0 00-1.41 0l-.71.71a1 1 0 101.41 1.41l.71-.71a1 1 0 000-1.41zM5 14a9 9 0 004 7.47V27a1 1 0 001 1h8a1 1 0 001-1v-5.53A9 9 0 105 14zm6 12v-2h6v2h-6zm3-19a7 7 0 013.5 13.06 1 1 0 00-.5.87V22h-2v-6h2a1 1 0 000-2h-6a1 1 0 000 2h2v6h-2v-1.08a1 1 0 00-.5-.87A7 7 0 0114 7z" fill="#B4708D"/></svg>
